X:67
T:Earl Landale
H:set in vol 1st
Z:Jack Campin - http://www.campin.me.uk
S:Blaikie MS (NLS MS.1578) p21, Blaikie #62
M:C
L:1/4
V:1 midi program 1 74
V:2 midi program 1 46 bass middle = d transpose -24
Q:1/4=100
K:C
[V:1] C|EG  Ac |EG {A}c2   |G>F       Ec |   GG/E/ DC|
[V:2] z|cc' cc'|cc'   cc'  |cc'       cc'|   cc'   gc|
%
[V:1]   c>d ee |dc    Gc/d/|ed/c/ ({e}d)c|{G}A2    c|]
[V:2]   ed  cc'|bc'   gG   |cc'       gc |   f2    c|]
W:Transcription (c) Jack Campin 2009, no mirroring or republication without permission

